X:7
T:She's over young to marry. Ru1.007
%%VWML:RutherfordVol1-2248-p4-0p4
Z:Transcription by Village Music Project, Steve Mansfield July 2015
F:http://www.village-music-project.org.uk/
F:http://www.vwml.org/record/RutherfordVol1/2248/p4
L:1/8
W:Foot it all four & Hands across quite
W:Round .| Foot it the same back again.
W:Gallop down the Middle & up again &
W:Cast off .|. Right Hand & Left :|
Q:2/4=75
K:C
|:C | E>GG>A c>de>c | c>AG>A d>ed>D | E>GG>A c>de>c | e/f/g d>e eC C :|
|: g | e>cg>c e>fg>a | e>cg>c e>dd>g | e>cg>c e>fg>a | e>cd>B cC C :|
T:Kiss under the Stairs. Ru1.008
B:Rutherford's Country Dances Vol 1, 1756
Z:village music project, Steve Mansfield July 2015
M:6/8
L:1/8
W:The first Cu. cast off & Hands round with the 3d Cu. .| Cast up
W:Again & Hands round with the 2d Cu. :| Gallop down two Cu.
W:Up again cast off & turn Lead thro' the 3d Cu. cast up into the 2d
W:Couple's Place & turn your Partners :|
Q:3/8=90
N:NB B2 in Mss, amended to balance bar lengths
K:Bb
|:E | D/E/FD B,2C | D2E FED | GFE FED | CcB AGF |
edc dcB | (A/B/)cA AGF | (G/A/)BG FDB, | CB,A, B,2 :|
"NB"B | (A/B/)cA F2G | A2B cBA | dcB cBA | Gdc BAG |
edc d^fg | cBA Bdf | BAG (c/d/)ed | D>G^F G2A |
BFD BEC | (D/E/)FE DCB, | CEA DFB | EGc AGF |
edc dcB | (A/B/)cB AGF | (g/a/)bg fed | cBA B2 :|
